src/assets/search.svg

<svg width="current" height="current" viewBox="0 0 24 25" fill="none" xmlns="http://www.w3.org/2000/svg">
<path d="M11.443 22.885C5.13538 22.885 0 17.7496 0 11.442C0 5.1344 5.13538 -0.000976562 11.443 -0.000976562C17.7506 -0.000976562 22.8859 5.1344 22.8859 11.442C22.8859 17.7496 17.7506 22.885 11.443 22.885ZM11.443 1.6736C6.05082 1.6736 1.67458 6.061 1.67458 11.442C1.67458 16.823 6.05082 21.2104 11.443 21.2104C16.8351 21.2104 21.2114 16.823 21.2114 11.442C21.2114 6.061 16.8351 1.6736 11.443 1.6736Z" fill="#132743"/>
<path d="M23.1654 24.0012C22.9533 24.0012 22.7412 23.9231 22.5737 23.7556L20.341 21.5229C20.0172 21.1991 20.0172 20.6632 20.341 20.3395C20.6647 20.0157 21.2006 20.0157 21.5243 20.3395L23.7571 22.5723C24.0809 22.896 24.0809 23.4319 23.7571 23.7556C23.5896 23.9231 23.3775 24.0012 23.1654 24.0012Z" fill="#132743"/>
</svg>

<svg xmlns="http://www.w3.org/2000/svg" width="current" height="current" fill="none" viewBox="0 0 24 25"><path fill="#132743" d="M11.443 22.885C5.135 22.885 0 17.75 0 11.442S5.135-.001 11.443-.001s11.443 5.135 11.443 11.443-5.135 11.443-11.443 11.443m0-21.211c-5.392 0-9.768 4.387-9.768 9.768s4.376 9.768 9.768 9.768 9.768-4.387 9.768-9.768-4.376-9.768-9.768-9.768m11.722 22.327a.83.83 0 0 1-.591-.245l-2.233-2.233a.84.84 0 0 1 0-1.183.84.84 0 0 1 1.183 0l2.233 2.232a.84.84 0 0 1 0 1.184.83.83 0 0 1-.592.245"/></svg>
